X:3
T:No.47 Germans
C:german
M:4/4
L:1/8
K:D
FG||A2A2f2fe|dedBA2BA|GFGAB2AF|
GFGA BAFG|A2A2f2fe|dc (3dcBA2BA|
GFGA BABc|[1d2f2d2FG:|[2d2f2d2(3ABc||
dcdef2A2|dcdef2A2|edef gABc|
dcdef2A2|dcdef2A2|dcdef2A2|
edef gABc|[1d2f2d2(3ABc:|[2d2f2d2fg||
afge f2fe|defdB2ef|gefde2d2|
(3cdc (3BcBA2fg|afge f2fe|defdB2ef|
gefd e2a2|[1(3AAA Bcd2fg:|[2(3AAA Bcd2d2||
DEFG A2A2|ABdef2a2|gefde2dB|
ABAFE2FE|DEFGA2A2|ABdef2a2|
gefde2a2|[1(3AAA Bcd2d2:|[2(3AAA Bcd4||
